X: 28010
T: Moving Cloud, The
R: reel
M: 4/4
K: Fmajor
CFAF DFAF|CFAF DFAF|G2=BG dGBG|~G2Ac =BGAF|
[C2F2]AF DFDF|[C2F2]AF DFAF|G2=Bc defd|1 gfdc AGFA:|2 gfdc =Bcde||
~f2ga f~c3|=Bcfc AFFD|G2~g2 fgag|~g2fa gfde|
~f2ga f~c3|fcfc AFFA|G2=Bc defd|1 gfdc =Bcde:|2 gfdc AGA=B||
c2ac ccac|acca ccac|d2bd bdbd|bdbb dbbd|
c2 (3ccc ccac|cccd ccac|ccac bbag|1 fdcA cFA=B:|2 fdcA c[C2F2]F||

